X:345
T:If Ye Had Been Where I Hae Been
R:Strathspey
B:The Athole Collection
M:C|
L:1/8
K:D
e/f/|a<A A/A/A B>AG>B|a<A A/A/A B<d d>f|a<A A/A/A B>AG>g|
f>ae>d B<dd:|
|:e|f2 f>d g2 g>e|f2 f>d f<a a>g|1 f2 f>d g2 g>e|f<a e>d B<d d>e:|2
f<a f>d g<b g>e|f>ae>d B<dd||

